X:1
T:Skott-sara leken (pols)
R:rorospols
Z:from workshop with Annar Gjelten
Z:also 97. Kaeggleken in Pols i Rorostraktom
Z:Smaviltlaget, Lader Om, Track 17
M:3/4
L:1/8
K:D
|:  "D"d>c A3 A | "A"d>c e3 A | "D"d>e fd g>f |  "A"e>d cB B>A
|   "D"A>G FE F>D | "G"G<B "A"A4 | "D"d>e f/d/f "A"e>c | "D"d2 d4 :|
|:  "D"(fe/f/) d2 f>a | "A"ag e4 | "D"(fe/f/) d2 e>f | "A"dc A4
|   "D"(fe/f/) d2 f>a | "A"ag e2 g>b | "D"ac d2 e>f | "A"dc "D"d4 :|

